X:90
T:RVW2/2/90 With Your Gun on Your Shoulder
C:Mr. Ansfield, Gamekeeper, Leith Hil Placel, Surrey, (May) 1904
L:1/8
Q:1/4=99
M:6/8
I:linebreak $
K:G
"^(Editorial suggestion  " G2 A | B3 B2 A | B2 A B2 c | d2 B G2 A |$ B3 z BB | ddA AAA | 
w: With your|gun on your|shoul- der and your|bayo- net by your|side you'll be|tak- ing a- no- ther fine|
B2 A G2 D |$ G2 D G2 A | B3- BBB | ddd ABc |$ B2 A G2 D | G2 D B2 A | G3 |] 
w: la- dy and be|ma- ing her your|bride _ you'll be|ta- king a- no- ther fine|la- dy and be|ma- king her your|bride.|



